svg/icon/auto.svg

<svg height="32" viewBox="0 0 32 32" width="32" xmlns="http://www.w3.org/2000/svg" xmlns:xlink="http://www.w3.org/1999/xlink"><defs><linearGradient id="a" x1="50%" x2="50%" y1="0%" y2="100%"><stop offset="0" stop-color="#fff" stop-opacity=".5"/><stop offset="1" stop-opacity=".5"/></linearGradient><circle id="b" cx="16" cy="15" r="15"/><filter id="c" height="111.7%" width="111.7%" x="-5.8%" y="-4.2%"><feOffset dy=".5" in="SourceAlpha" result="shadowOffsetOuter1"/><feGaussianBlur in="shadowOffsetOuter1" result="shadowBlurOuter1" stdDeviation=".5"/><feComposite in="shadowBlurOuter1" in2="SourceAlpha" operator="out" result="shadowBlurOuter1"/><feColorMatrix in="shadowBlurOuter1" values="0 0 0 0 0   0 0 0 0 0   0 0 0 0 0  0 0 0 0.199473505 0"/></filter><path id="d" d="m24.5 18.2673835-4.1846154-2.5118279.4794872-1.9880636 1.7871795 1.0547302v-3.6335853l-5.7401752-3.42159457v7.89962437l-1.364953.7555555 7.5381952 4.4695778-7.0151183 4.1082-8.5-4.9777778v-9.9555555l8.5-5.0666667 8.5 5.0666667zm-15.08205128-7.0787466v6.4780298l5.51785848-3.2v-6.56710621zm4.09743588 6.3446964-3.1383169 1.918598 5.6229323 3.2929068 3.1746935-1.8591669z"/><filter id="e" height="117.5%" width="120.6%" x="-10.3%" y="-6.2%"><feOffset dy=".5" in="SourceAlpha" result="shadowOffsetOuter1"/><feGaussianBlur in="shadowOffsetOuter1" result="shadowBlurOuter1" stdDeviation=".5"/><feColorMatrix in="shadowBlurOuter1" values="0 0 0 0 0   0 0 0 0 0   0 0 0 0 0  0 0 0 0.204257246 0"/></filter></defs><g fill="none" fill-rule="evenodd"><use fill="#000" filter="url(#c)" xlink:href="#b"/><use fill="#fab431" xlink:href="#b"/><use fill="url(#a)" xlink:href="#b"/><circle cx="16" cy="15" r="14.5" stroke="#000" stroke-opacity=".097"/><use fill="#000" filter="url(#e)" xlink:href="#d"/><use fill="#fff" xlink:href="#d"/></g></svg>

<svg xmlns="http://www.w3.org/2000/svg" xmlns:xlink="http://www.w3.org/1999/xlink" width="32" height="32" viewBox="0 0 32 32">
  <defs>
    <linearGradient id="auto-c" x1="50%" x2="50%" y1="0%" y2="100%">
      <stop offset="0%" stop-color="#FFF" stop-opacity=".5"/>
      <stop offset="100%" stop-opacity=".5"/>
    </linearGradient>
    <circle id="auto-b" cx="16" cy="15" r="15"/>
    <filter id="auto-a" width="111.7%" height="111.7%" x="-5.8%" y="-4.2%" filterUnits="objectBoundingBox">
      <feOffset dy=".5" in="SourceAlpha" result="shadowOffsetOuter1"/>
      <feGaussianBlur in="shadowOffsetOuter1" result="shadowBlurOuter1" stdDeviation=".5"/>
      <feComposite in="shadowBlurOuter1" in2="SourceAlpha" operator="out" result="shadowBlurOuter1"/>
      <feColorMatrix in="shadowBlurOuter1" values="0 0 0 0 0   0 0 0 0 0   0 0 0 0 0  0 0 0 0.199473505 0"/>
    </filter>
    <path id="auto-e" d="M24.5,18.2673835 L20.3153846,15.7555556 L20.7948718,13.767492 L22.5820513,14.8222222 L22.5820513,11.1886369 L16.8418761,7.76704233 L16.8418761,15.6666667 L15.4769231,16.4222222 L23.0151183,20.8918 L16,25 L7.5,20.0222222 L7.5,10.0666667 L16,5 L24.5,10.0666667 L24.5,18.2673835 Z M9.41794872,11.1886369 L9.41794872,17.6666667 L14.9358072,14.4666667 L14.9358072,7.89956049 L9.41794872,11.1886369 Z M13.5153846,17.5333333 L10.3770677,19.4519313 L16,22.7448381 L19.1746935,20.8856712 L13.5153846,17.5333333 Z"/>
    <filter id="auto-d" width="120.6%" height="117.5%" x="-10.3%" y="-6.2%" filterUnits="objectBoundingBox">
      <feOffset dy=".5" in="SourceAlpha" result="shadowOffsetOuter1"/>
      <feGaussianBlur in="shadowOffsetOuter1" result="shadowBlurOuter1" stdDeviation=".5"/>
      <feColorMatrix in="shadowBlurOuter1" values="0 0 0 0 0   0 0 0 0 0   0 0 0 0 0  0 0 0 0.204257246 0"/>
    </filter>
  </defs>
  <g fill="none" fill-rule="evenodd">
    <use fill="#000" filter="url(#auto-a)" xlink:href="#auto-b"/>
    <use fill="#FAB431" xlink:href="#auto-b"/>
    <use fill="url(#auto-c)" style="mix-blend-mode:soft-light" xlink:href="#auto-b"/>
    <circle cx="16" cy="15" r="14.5" stroke="#000" stroke-opacity=".097"/>
    <g>
      <use fill="#000" filter="url(#auto-d)" xlink:href="#auto-e"/>
      <use fill="#FFF" xlink:href="#auto-e"/>
    </g>
  </g>
</svg>
